svgs/sharp-solid/jet-fighter.svg

<svg xmlns="http://www.w3.org/2000/svg" viewBox="0 0 640 512"><!--! Font Awesome Pro 6.6.0 by @fontawesome - https://fontawesome.com License - https://fontawesome.com/license (Commercial License) Copyright 2024 Fonticons, Inc. --><path d="M160 0l24 0L296 0l24 0 0 48-24 0-24 0L384 192l128 0 128 48 0 32L512 320l-128 0L272 464l24 0 24 0 0 48-24 0-112 0-24 0 0-48 24 0 8 0 0-144-32 0L96 384l-64 0 0-96c-17.7 0-32-14.3-32-32s14.3-32 32-32l0-96 64 0 64 64 32 0 0-144-8 0-24 0 0-48zM80 240l-16 0 0 32 16 0 64 0 16 0 0-32-16 0-64 0z"/></svg>

<svg xmlns="http://www.w3.org/2000/svg" viewBox="0 0 640 512"><!--! Font Awesome Pro 6.4.2 by @fontawesome - https://fontawesome.com License - https://fontawesome.com/license (Commercial License) Copyright 2023 Fonticons, Inc. --><path d="M160 0h24H296h24V48H296 272L384 192H512l128 48v32L512 320H384L272 464h24 24v48H296 184 160V464h24 8V320H160L96 384H32V288c-17.7 0-32-14.3-32-32s14.3-32 32-32V128H96l64 64h32V48h-8H160V0zM80 240H64v32H80h64 16V240H144 80z"/></svg>
